X: 28868
T: Mynydd Yr Heliwr
R: jig
M: 6/8
K: Edorian
e3 B2e|dBA BAF|GFG EGB|c2d cBA|
e3 B2e|dBA BAF|GFG EGB|AGF E3:|:
E3 GEG|BAB EFG|F3 FGF|E2E GFE|
EGB e2e|dBA BAF|GFG EGB|AGF E3:|

